X:1
T:Amour se veult
T:Amour se veult
T:Anonymous (attr.J.Clemens)
C:Anonymous (attr.J.Clemens)
%%score [ 1 [ 2 3 ] 4 ]
L:1/8
Q:1/4=76
M:2/2
K:C
V:1 treble nm="Superius" snm="S"
V:2 treble-8 nm="Tenor 1" snm="T 1"
V:3 treble-8 nm="Tenor 2" snm="T 2"
V:4 bass nm="Bass" snm="B"
V:1
 z8 | z8 | z8 | z8 | z4 A4 | A2 G2 A3 B | c6 B2 | A2 B3 A A2- | A2 G2 A4- | A4 F2 G2 | A8 | %11
w: ||||A-|mour se veult a-|voir se-|lon for- * tu-|||ne,|
 z4 z2 A2 | A2 G2 A2 B2 | c6 B2 | A2 G3 FED | C2 D4 C2 | D2 E2 F2 F2- | F2 E2 D2 E2- | ED D4 C2 | %19
w: rai-|son n'y peult, ne|foy, ne|loy- aul- * * *||té, rai- son n'y|_ peult, ne foy,,|_ ne loy- au-|
 D8- | D8 | z8 | z4 z2 A2 | A2 A2 D3 E | FGAB c2 BA | c2 B2 G2 c2 | B2 A2 G2 B2- |"^#" BA A3 F G2 | %28
w: té,|_||la|fem- me va, _|_ _ _ _ _ _ _|* chan- geant com-|me la lu- *||
 E2 A2 A2 A2 | DEFG AB c2- | c2 BA GA B2- | BA A4 G2 | A8 | z8 | z2 E2 F2 A2 | G2 F2 E2 G2 | %36
w: ne, chan- geant com-|me _ _ _ la _ lu-|||ne,||met- tant le|tout en sa seul-|
 F4 E2 A2- | AGFE F4 | E8 | z2 E2 E2 E2 | E4 F4 | F2 E2 E2 D2 | E2 c2 c2 B2 | B2 c4 B2 | A4 G4 | %45
w: le beaul- *||té,|pour e- vi-|ter tour-|ment et cru- aul-|te, tour- ment et|cru- aul- *|* té,|
 z8 | z4 z2 A2 | A2 G2 A2 B2 | c6 B2 | A2 B4 A2- | A2 G2 A4- | A4 z4 | z8 | z8 | z2 A2 A2 G2 | %55
w: |at-|ten- dre fault que|la chan-|ce se tour-|* * ne,|_|||car il n'est|
 A2 B2 c4- | c2 B2 A2 GF | ED G3 F F2- | F2 E2 F4- | F2 F2 D2 E2 | F4 E4 | z2 E2 E2 D2 | %62
w: jour en l'an|_ qui ne re- *|* * tour- * *|* * ne,|_ qui ne re-|tour- ne,|car il n'est|
 F2 E2 D3 E | F2 E3 D D2- |"^#" D2 C2 D4- | D8 |] %66
w: jour en l'an qui|ne re- * tour-|* * ne.|_|
V:2
 z8 | z8 | z8 | z8 | d4 d2 c2 | d2 e2 f4- | f2 e2 d4 | c2 d3 c A2 | B4 A4- | A4 z4 | z2 d2 d2 c2 | %11
w: ||||mour se veult|a- voir se-|_ lon for-|tu- ne, * *|* rai-|_|son n'y peult,|
 d2 e2 f4- | f2 e2 d4 | c4 A2 B2 | c2 BA G2 A2- | A2 G2 A4 | B4 c4- | c4 A2 B2- | B2 G2 A2 A2 | %19
w: ne foy, ne|_ loy- aul-|té, * *|||||* * la fem-|
 A2 A2 DEFG | A2 DE FGAB | c4 z2 e2 | e2 e2 ABcd | e2 f4 ed | c2 f2 e3 d/c/ | e4 d2 c2 | e8 | %27
w: me va chan- _ _ _|_ geant, * * * * *|la fem-|me va chan- _ _ _|_ geant * *|com- me la lu- _|ne, * *|la|
 z2 e2 e2 e2 | c3 d e2 f2- | f2 ed c4- | c2 d2 e2 f2- | f2 d2 e4 | c4 z2 A2 | B2 d2 c2 B2 | %34
w: fem- me va|chan- geant com- me|* * * le|_ lu- ne, *||met- tant|le tout en sa|
 A2 c2 d4 | e2 A4 G2 | A4 B2 c2 | d2 c4 B2 | c8 | z2 c2 c2 c2 | c4 d4 | d2 c2 c2 A2 | c2 e2 e2 e2 | %43
w: seul- le beaul-|té, * *|||pour|e- vi- ter|tour- ment|et cru- aul- té,|tour- ment et cru-|
 d2 f3 e e2- | e2 d2 e4 | z2 d2 d2 c2 | d3 e f4- | f2 e2 d4 | c2 e4 d2 | c2 d3 c A2 | B4 A4 | %51
w: aul- te, * *|* * at-|ten- dre fault|que _ la|_ chan- ce|tour- ne, *||* at-|
 z2 A2 A2 G2 | A2 c2 d2 e2 | f6 e2 | d4 c2 B2 | A2 G2 A2 F2 | G4 z2 A2 | A2 G2 A2 A2 | %58
w: ten- dre fault|que la _ chan-|ce tour-|ne, * *||car il|n'est jour en l'an|
 B2 c2 _B2 A2- | A2 d4 c2 | d4 z2 A2 | A2 G2 A2 B2 | c4 z4 | c4 _B2 B2 | A4 A4- | A8 |] %66
w: qui ne re- tour-|* ne, *|car il|n'est jour en l'an|qui|ne re- tour-|ne. A-|_|
V:3
 z4 A4 | A2 G2 A3 B | c6 B2 | A2 B3 A A2- | A2 G2 A4 | z8 | z8 | z2 D2 D2 C2 | D2 E2 F3 G | %9
w: mour|se veult a- voir|se- lon|for- tu- * ne,|* * rai-|||son n'y peult,|ne foy, ne loy-|
 ABcA B4 | A4 z2 A2 | A2 G2 A3 B | c2 c4 B2 | A3 G FE E2- | E2 D2 E2 E2 | E2 D2 E2 F2 | G2 G2 A4- | %17
w: aul- * * * té,|rai- son|n'y peult, ne foy,|ne loy- aul-|té, * * * *|* * rai- son|n'y peult, ne foy,|ne loy- aul-|
 A2 G2 F2 G2- | GFED E4 | D4 z2 A2 | A2 A2 DEFG | AB c4 BA | G2 G2 F2 E2- | E2 A4 G2 | %24
w: * té, * *||la fem-|me va chan- _ _ _|geant * com- me *|la lu- ne, *||
 A2 c2 A2 c2- | cBGA B2 A2 | G2 c3 BGA | B2 c2 B4 | A8 | z2 A2 A2 F2- | FGAB c2 d2- | dcBA B4 | %32
w: chan- geant com- me|* * * * la lu-|ne, * * * *||com-|me la lu-|_ _ _ _ _ ne,||
 A8 | z8 | z4 A4 | B2 d2 c2 B2 | A2 c2 B2 A2- | A2 G4 F2 | G4 A4 | A2 A2 A4- | A4 z2 A2 | %41
w: met-||tant|le tout en sa|seul- le beaul- té,||pour e-|vi- ter tour-|_ ment|
 A2 A2 G2 F2 | E2 A4 E2 | G2 A2 D4 | z2 A2 B2 c2 | d3 c BA A2- | A2 G2 A4 | z8 | z8 | z2 D2 D2 C2 | %50
w: et cru- aul- té,||* * at-|ten- dre fault|que la chan- _ ce|* * at-|||ten- dre fault-|
 D2 E2 F3 G | ABcA B4 | z2 A2 A2 G2 | A2 B2 c3 B | A3 G/F/ G2 E2- | E2 D2 E2 DC | D3 E F2 ED | %57
w: que la chan- _|ce, * * * at-|ten- dre fault|que la chan- _|ce * * * se|_ tour- ne, * *|se tour- ne, * *|
 C2 E2 F4 | G4 F4 | z2 A2 A2 G2 | A2 B2 c4- | c2 B2 A2 G2 | A4 F2 G2 | A3 G F2 G2 | E4 D4- | D8 |] %66
w: |* car|il n'est jour|en l'an qui|_ ne re- tour-|ne. * *||* A-|_|
V:4
 D,4 D,2 C,2 | D,2 E,2 F,4- | F,2 E,2 D,4 | C,2 D,4 C,2 | B,,4 A,,4 | z8 | z8 | z8 | z4 D,4 | %9
w: mour se veult|a- voir se-|_ lon for-|tu- ne, *|* rai-||||son|
 D,2 C,2 D,2 E,2 | F,2 E,D, F,4- | F,2 E,2 D,2 D,2 | C,4 z4 | z2 A,,2 A,,2 G,,2 | A,,2 B,,2 C,4- | %15
w: n'y peult, ne foy,|ne _ _ _|_ loy- aul- té,|rai-|son n'y peult,|ne foy, ne|
 C,2 B,,2 A,,4 | G,,4 F,,3 G,, | A,,B,, C,2 D,2 G,,2 | B,,4 A,,4 | z2 A,2 A,2 A,2 | %20
w: _ loy- aul-|té, * *||* la|fem- me va|
 D,E,F,G, A,2 A,2 | F,2 E,D, C,2 C,2 | C,2 C,2 D,2 A,,2 | C,2 D,2 B,,4 | A,,8 | z8 |"^#" z8 | %27
w: chan- _ _ _ _ geant|com- _ _ _ me|la lu- ne, *||la|||
 E,4 E,2 E,2 | A,,3 B,, C,2 D,2- | D,C,D,E, F,G, A,2- | A,2 G,F, E,2 D,2 | F,2 F,2 E,4 | A,,8 | %33
w: fem- me va|chan- _ _ geant-|* * * * * * com-|_ _ _ _ me|la lu- ne,|met-|
 z2 D,2 E,2 G,2 | F,2 E,2 D,2 F,2 | E,2 D,2 E,4 | F,G,A,F, G,2 F,2- | F,E,D,C, D,4 | C,4 z4 | %39
w: tant le tout|en sa seul- be|beaul- té, *|||pour|
 A,,4 A,,2 A,,2 | A,,4 D,4 | D,2 A,,2 C,2 D,2 | A,,4 z4 | z2 A,2 A,2 G,2 | F,2 F,2 E,4 | %45
w: e- vi- ter|tour- ment|et cru- aul- té,|pour|e- vi- ter|tour- ment et|
 F,3 E, D,C,B,,A,, | B,,4 A,,2 D,2 | D,2 E,2 F,2 G,2 | A,4 z4 | z8 | z4 D,4 | D,2 C,2 D,2 E,2 | %52
w: cru- aul- té, * * *|* tour- ment|et cru- aul- té,|at-||ten-|dre fault que la|
 F,6 E,2 | D,4 C,4 | D,4 E,3 D, | C,2 B,,2 A,,4 | G,,4 z4 | z4 z2 D,2 | D,2 C,2 D,3 E, | F,6 E,2 | %60
w: chan- ce|tour- ne,|||car|il|n'est jour en l'en|qui ne|
 D,4 C,2 A,,2 | E,3 D, C,2 B,,2 | A,,4 _B,,4 |"^b" A,,4 B,,2 G,,2 | A,,4 D,4- | D,8 |] %66
w: re- tour- *|ne. * * *|||* €|_|

